packages/foundations/assets/icons/functional/images/file/document_check_16.svg

<svg width="16" height="16" viewBox="0 0 16 16" fill="none" xmlns="http://www.w3.org/2000/svg">
<g clip-path="url(#clip0_185_910)">
<path fill-rule="evenodd" clip-rule="evenodd" d="M8.00004 1.60001C8.20004 1.60001 8.40004 1.67521 8.54964 1.82481L10.9752 4.22481C11.1248 4.37521 11.2 4.57521 11.2 4.80001V5.60001H7.97524C7.52484 5.60001 7.17524 5.24961 7.17524 4.80001V3.20001H3.20004V12.8H6.40004V14.4H2.40004C1.94964 14.4 1.60004 14.0496 1.60004 13.6V2.40001C1.60004 1.94961 1.94964 1.60001 2.40004 1.60001H8.00004ZM10.4 6.40001C12.6 6.40001 14.4 8.20001 14.4 10.4C14.4 12.6 12.6 14.4 10.4 14.4C8.19996 14.4 6.39996 12.6 6.39996 10.4C6.39996 8.20001 8.19996 6.40001 10.4 6.40001ZM11.459 9.11199L10.1091 10.4869L9.48956 9.84243L8.53956 10.7924L10.1091 12.3619L12.4091 10.0619L11.459 9.11199Z" fill="#1A1C1F"/>
</g>
<defs>
<clipPath id="clip0_185_910">
<rect width="16" height="16" fill="white"/>
</clipPath>
</defs>
</svg>

<svg xmlns="http://www.w3.org/2000/svg" width="16" height="16" fill="none"><g clip-path="url(#a)"><path fill="#1A1C1F" fill-rule="evenodd" d="M8 1.6c.2 0 .4.075.55.225l2.425 2.4c.15.15.225.35.225.575v.8H7.975a.79.79 0 0 1-.8-.8V3.2H3.2v9.6h3.2v1.6h-4a.79.79 0 0 1-.8-.8V2.4c0-.45.35-.8.8-.8zm2.4 4.8c2.2 0 4 1.8 4 4s-1.8 4-4 4-4-1.8-4-4 1.8-4 4-4m1.059 2.712-1.35 1.375-.62-.645-.95.95 1.57 1.57 2.3-2.3z" clip-rule="evenodd"/></g><defs><clipPath id="a"><path fill="#fff" d="M0 0h16v16H0z"/></clipPath></defs></svg>
